!!!OTL: Das Schwabentoechterlein.
!!!OTL-incipit: Es wollt' ein Maedchen nach Frankreich zieh'n,
!!!ARE: Europa, Mitteleuropa, Deutschland (BRD), Hessen - Nassau
!!!YOR: 4, S. 52
!!    1894 gedruckt in Berlin
!!!SCT: Q0073K
!!!TXL: @@DE
!!!YEM: Copyright 1995, estate of Helmut Schaffrath.
**kern	**text
*ICvox	*
*M4/4	*
*met(c)	*
*k[f#]	*
*G:	*
!LO:TX:a:t=49 Heiſen-Naſſau	!
{4d	Es
=1	=1
4g	wollt'
4g	ein
8gL	Mädchen
8bJ	.
8dd	.
8b	nach
=2	=2
4b	Frankreich
4a	.
4a	ʒieh'n,
8r}	.
{8a	bei
=3	=3
4a	ei-
4b	-nem
4cc	Kauf-
8ccL	-mann
8eeJ	.
=4	=4
2ee	die-
4dd	-nen,
8r}	.
{8dd	die
=5	=5
4cc	wollte
4cc	.
4.b	Hut
8a	und
=6	=6
8bL	Man-
8g	.
8ddJ	.
8b	-tel
4a	hab'n
8r}	.
{8cc	und
=7	=7
4b	Schuh
4g	mit
4a	ſchma-
4f#	-len
=8	=8
2a	Rie-
4g}	-men.
==	==
!!!AGN: Ballade, Weglaufen, Schwangerschaft, Rueckkehr
!!!ONB: ESAC (Essen Associative Code) Database: BALLADE
!!!AMT: simple quadruple
!!!AIN: vox
!!!EED: Helmut Schaffrath
!!!EEV: 1.0
!!!source: Deutsche Volkslieder mit ihren Melodien. Herausgegeben vom Deutschen Volksliedarchiv. Vierter Band. Berlin 1959.
!!!page: 52
!!!ENC: Anna Maria Matuszewska
!!!EEV: 2025/02/21
*-	*-
